src/shared/assets/icons/beer.svg

<svg width="112" height="112" viewBox="0 0 112 112" fill="none" xmlns="http://www.w3.org/2000/svg">
<path d="M72.7749 22.4478V33.6479H83.9751L83.9282 33.7417C87.0081 33.7417 89.5287 36.2614 89.5288 39.3413V50.4946C89.5288 53.5745 88.2687 56.3747 86.2622 58.3813L72.7749 71.8687V78.4019C72.7747 84.5617 67.7346 89.5552 61.5747 89.5552H33.6216C27.4617 89.5551 22.4683 84.5149 22.4683 78.355V22.4478H72.7749ZM28.0688 39.2017V78.355C28.0689 81.4349 30.5885 83.9546 33.6685 83.9546H61.6685C64.7484 83.9546 67.268 81.4349 67.2681 78.355V39.2017H61.6685V78.3081H56.0688V39.2017H50.4683V78.3081H44.8687V39.2017H39.2681V78.3081H33.6685V39.2017H28.0688ZM72.8218 39.2017V63.8882L82.3413 54.3687C83.4146 53.2954 83.975 51.8951 83.9751 50.4019L84.022 50.355V39.2017H72.8218ZM28.0688 28.0483V33.6479H67.2222V28.0483H28.0688Z" fill="white"/>
</svg>

<svg xmlns="http://www.w3.org/2000/svg" width="112" height="112" fill="none" viewBox="0 0 112 112"><path fill="#fff" d="M72.775 22.448v11.2h11.2l-.047.094c3.08 0 5.6 2.52 5.6 5.6v11.153c0 3.08-1.26 5.88-3.266 7.886L72.775 71.87v6.533c0 6.16-5.04 11.153-11.2 11.153H33.622c-6.16 0-11.154-5.04-11.154-11.2V22.448zM28.069 39.202v39.153c0 3.08 2.52 5.6 5.6 5.6h28c3.08 0 5.599-2.52 5.6-5.6V39.202h-5.6v39.106h-5.6V39.202h-5.6v39.106h-5.6V39.202h-5.6v39.106h-5.6V39.202zm44.753 0v24.686l9.52-9.52a5.54 5.54 0 0 0 1.633-3.966l.047-.047V39.202zM28.069 28.048v5.6h39.153v-5.6z"/></svg>
